X:1
T:On the Rock
T:Charles Clinton Case
T:On the Rock
T:Public Domain
T:Public Domain
T:Public Domain
C:Charles Clinton Case
Z:Public Domain
%%score ( 1 2 ) ( 3 4 )
L:1/8
M:4/4
K:Bb
V:1 treble 
V:2 treble 
V:3 bass 
V:4 bass 
V:1
 [DF]>[EG] [DF]>[^C=E] [DF]2 [Fd]2 | ([Fd]3 [Ec]) [DB]2 [FB]2 | [FA]3 [EG] [DF]2 [CE]2 | %3
w: 1.~Stand- ing on the Rock of|Ag- * es, The|Rock that shall en-|
w: 2.~Stand- ing on the Rock of|Ag- * es, We|view the tran- quil|
w: 3.~Stand- ing on the Rock of|Ag- * es, No|need have we to|
 [B,D]6 z2 | [DF]2 [DF]>[^C=E] [DF]2 [Fd]2 | (d3 c) [FB]2 [Fd]2 | [=Ec]3 [EB] [EA]2 [EG]2 | F6 F2 | %8
w: dure,|Un- shak- en by the|tem- * pest, E-|nal, firm and sure;|There is|
w: soul,|Un- trou- bled by the|tem- * pest, Or|ing bil- lows’ roll;|Be dan-|
w: fear,|God ban- ish- es our|sor- * row, God|a- way our tear;|We’re watch-|
 [EA]3 [DB] [Ec]2 [EF]2 | [DB]6 F2 | [EA]3 [DB] [Ec]2 F2 | [Fd]6 z2 | %12
w: re- treat, A re-|fuge strong|free, A- mid the|y|
w: they may, And break|the waves|care, A- mid the|com-|
w: be- lieve, We trust|His prom-|sure, That crowns of|are|
 [DF]2 [DF]>[^C=E] [DF]2 [Fd]2 | ([Fd]3 [Ec]) [DB]2 [F=B]2 | [Gc]3 [Gd] [Ge]2 (FE) | [DB]6 z2 || %16
w: bil- lows Of life’s tem-|pest- * uous sea.|Stand- ing, stand- ing, *|ing|
w: mo- tion, We stand in|safe- * ty there.|||
w: wait- ing For all His|saints * se- cure.|||
"^Refrain" [Fd]6 [Fc]2 | [FB]4 [FB]4 | [EA]>[EB] [EA]>[EG] [EF]2 (GF) | [DF]4 [B,D]2 z2 | %20
w: on the|Rock of|Ag- es, Stand- ing, stand- ing, *|need have|
w: ||||
w: ||||
 [Fd]6 [Fc]2 | [FB]4 [FB]2 [FB]2 | (AB)(cd) [Fe]2 [EA]2 | [DB]6 z2 |] %24
w: I to|fear. * *|||
w: ||||
w: ||||
V:2
 x8 | x8 | x8 | x8 | x8 | F4 x4 | x8 | F6 F2 | x8 | x6 F2 | x6 F2 | x8 | x8 | x8 | x6 A2 | x8 || %16
w: |||||ter-||a safe||and|storm-||||Stand-||
w: |||||surg-||gers what||of|wild||||||
w: |||||wipes||ing, we||ise|joy||||||
 x8 | x8 | x6 E2 | x8 | x8 | x8 | F2 F2 x4 | x8 |] %24
w: ||No||||||
w: ||||||||
w: ||||||||
V:3
 [B,,B,]>[B,,B,] [B,,B,]>[B,,B,] [B,,B,]2 [B,,B,]2 | [B,,B,]4 [B,,B,]2 [D,B,]2 | %2
w: ~ ~ ~ ~ ~ ~|~ ~ ~|
 [F,C]3 [F,A,] [F,B,]2 F,2 | [B,,F,]6 z2 | [B,,B,]2 [B,,B,]>[B,,B,] [B,,B,]2 [B,,B,]2 | %5
w: ~ ~ ~ ~|~|~ ~ ~ ~ ~|
 ([B,,B,]3 [C,A,]) [D,B,]2 [B,,B,]2 | [C,G,]3 [C,G,] [C,C]2 [C,B,]2 | [F,A,]6 [F,A,]2 | %8
w: ~ * ~ ~|~ ~ ~ ~|~ ~|
 [F,C]3 [F,B,] [F,A,]2 [F,C]2 | [B,,B,]6 [D,B,]2 | [F,C]3 [F,B,] [F,A,]2 A,2 | B,6 z2 | %12
w: ~ ~ ~ ~|~ ~|~ ~ ~ ~|~|
 [B,,B,]2 [B,,B,]>[B,,B,] [B,,B,]2 [B,,B,]2 | ([F,B,]3 [^F,A,]) [G,B,]2 [=F,D]2 | %14
w: ~ ~ ~ ~ ~|~ * ~ ~|
 [E,C]3 [D,=B,] [C,C]2 [F,C]2 | [B,,B,]6 z2 || [B,,B,]>[C,B,] [D,B,]>[E,B,] [F,B,]2 [G,E]>[A,E] | %17
w: ~ ~ Stand- ing|on|the Rock, I am stand- ing on|
 [B,D]>[B,D] [F,D]>[D,B,] [B,,D]4 | [F,C]>[F,D] [F,C]>[F,B,] [F,A,]2 [F,A,]2 | %19
w: the Rock ~ ~ ~|~ ~ ~ ~ ~ Stand-|
 [B,,B,]4 [B,,F,]2 z2 | [B,,B,]>[B,,B,] [D,B,]>[E,B,] [F,B,]2 [G,E]>[A,E] | %21
w: ing on|the Rock, I am stand- ing on|
 [B,D]>[B,D] [F,D]>[D,B,] [B,,D]2 [D,B,]2 | (CB,)(A,B,) [F,C]2 [F,C]2 | [B,,B,]6 z2 |] %24
w: the Rock * * * *|||
V:4
 x8 | x8 | x6 F,2 | x8 | x8 | x8 | x8 | x8 | x8 | x8 | x6 A,2 | B,6 x2 | x8 | x8 | x8 | x8 || x8 | %17
w: ||~||||||||~|~||||||
 x8 | x8 | x8 | x8 | x8 | F,2 F,2 x4 | x8 |] %24
w: |||||||

